X:1
T:Aspiration, 66.66.88
T:Aspiration, 66.66.88
T:William Wallace Gilchrist, 1895
T:Public Domain Courtesy of the Cyber Hymnal™
C:William Wallace Gilchrist, 1895
Z:Public Domain
Z:Courtesy of the Cyber Hymnal™
%%score ( 1 2 ) ( 3 4 )
L:1/8
Q:1/4=111
M:3/4
K:Eb
V:1 treble 
V:2 treble 
V:3 bass 
V:4 bass 
V:1
 [B,E]2 [B,E]2 [EG]2 | B3 z c [EB]2 | [Ec]2 [EB]2 [EG]2 | F3 z E [EG]2 | [DG]2 [DG]2 [EB]2 | %5
 d3 z e [Gd]2 | [Ge]2 [EB]2 [EG]2 | F3 z E [EG]2 | [EG]2 [EG]2 [DG]2 | G2 c2 A2 | %10
 [DF]2 [CF]2 [DF]2 | F2 B2 [EG]2 | E2 [EG]2 [AB]2 | [Ge]2 E2 [EA]2 | F4 z F E2 | [EG]6 |] %16
V:2
 x6 | E2 D2 x3 | x6 | D2 B,2 x3 | x6 | G2 ^F2 x3 | x6 | D2 B,2 x3 | x6 | C6 | x6 | B,4 x2 | E2 x4 | %13
 x2 E2 x2 | E2 (D3 E2) x | x6 |] %16
V:3
 [E,G,]2 [D,G,]2 [C,E,]2 | [B,,F,]2 [A,B,]2 [G,B,]2 x | [E,G,]2 [G,B,]2 B,2 | %3
 [B,,A,]3 [E,G,] [E,B,]2 x | [G,B,]2 [F,B,]2 [E,G,]2 | [D,B,]2 [D,=A,]2 [G,B,]2 x | %6
 [E,B,]2 [G,B,]2 B,2 | [B,,A,]3 [E,G,] [E,B,]2 x | [C,C]2 [C,G,]2 [B,,G,]2 | G,2 A,2 C2 | %10
 [A,B,]2 [A,B,]2 [A,B,]2 | [G,B,]6 | [A,C]2 [G,E]2 [F,D]2 | [E,_D]2 [A,C]2 [F,C]2 | B,2 A,3 G, x2 | %15
 [E,B,]6 |] %16
V:4
 x6 | x7 | x4 B,2 | x7 | x6 | x7 | x4 B,2 | x7 | x6 | A,,6 | x6 | x6 | x6 | x6 | B,2 B,,4 x2 | %15
 x6 |] %16

